X:486
T: GUT HENSEL UEBR DIE HEIDE REIT
N: E0436
O: Europa, Mitteleuropa, Deutschland
R: Liebes - Lied, Untreue
M: 4/4
L: 1/4
K: F
F | AABB | ccc
c | BABc | BGA
c | AAGG | FFD
A | AFAB | c2BA | G2F

